assets/images/logo-twitter.svg

<svg fill="none" height="50" viewBox="0 0 62 50" width="62" xmlns="http://www.w3.org/2000/svg"><path d="m61.5294 5.88235c-2.2647 1.02941-4.7059 1.70589-7.2353 2.02941 2.5883-1.55882 4.5883-4.02941 5.5294-6.999995-2.4411 1.470585-5.147 2.500005-8 3.088235-2.3235-2.52941-5.5882-4-9.2941-4-6.9118 0-12.5588 5.64706-12.5588 12.6176 0 1 .1176 1.9706.3235 2.8824-10.4706-.5294-19.7941-5.55882-25.99998-13.17647-1.08824 1.85294-1.70588 4.02941-1.70588 6.32353 0 4.38234 2.20588 8.26474 5.61764 10.47054-2.08823 0-4.02941-.5882-5.73529-1.4705v.0882c0 6.1176 4.35294 11.2353 10.11761 12.3823-1.0588.2942-2.1764.4412-3.32349.4412-.79412 0-1.58824-.0882-2.35294-.2353 1.58823 4.9706 6.20583 8.6765 11.76473 8.7647-4.2941 3.4118-9.73532 5.4118-15.6765 5.4118-1 0-2-.0588-3.00000011-.1765 5.58824011 3.5883 12.23530011 5.6765 19.35290011 5.6765 23.1765 0 35.9118-19.2353 35.9118-35.9118 0-.5588 0-1.0882-.0294-1.647 2.4706-1.7647 4.5882-4.00002 6.2941-6.55885z" fill="#000"/></svg>

<svg width="62" height="50" viewBox="0 0 62 50" fill="none" xmlns="http://www.w3.org/2000/svg">
<path d="M61.5294 5.88235C59.2647 6.91176 56.8235 7.58824 54.2941 7.91176C56.8824 6.35294 58.8824 3.88235 59.8235 0.911765C57.3824 2.38235 54.6765 3.41177 51.8235 4C49.5 1.47059 46.2353 0 42.5294 0C35.6176 0 29.9706 5.64706 29.9706 12.6176C29.9706 13.6176 30.0882 14.5882 30.2941 15.5C19.8235 14.9706 10.5 9.94118 4.29412 2.32353C3.20588 4.17647 2.58824 6.35294 2.58824 8.64706C2.58824 13.0294 4.79412 16.9118 8.20588 19.1176C6.11765 19.1176 4.17647 18.5294 2.47059 17.6471C2.47059 17.6471 2.47059 17.6471 2.47059 17.7353C2.47059 23.8529 6.82353 28.9706 12.5882 30.1176C11.5294 30.4118 10.4118 30.5588 9.26471 30.5588C8.47059 30.5588 7.67647 30.4706 6.91177 30.3235C8.5 35.2941 13.1176 39 18.6765 39.0882C14.3824 42.5 8.94118 44.5 3 44.5C2 44.5 1 44.4412 -1.12197e-07 44.3235C5.58824 47.9118 12.2353 50 19.3529 50C42.5294 50 55.2647 30.7647 55.2647 14.0882C55.2647 13.5294 55.2647 13 55.2353 12.4412C57.7059 10.6765 59.8235 8.44118 61.5294 5.88235Z" fill="black"/>
</svg>
